X: 40390
T: Tom Kaley's Air
R: barndance
M: 4/4
K: Gmajor
DC|:B,D GB B3 A|G4 d2 GF|E3E/F/ G2D2|D6 DC|
B,D GB B3 A|G4 d2 GF|E3D/C/ D2F2|1 G6 DC:|2 G6 GF||
E2e2 d2 ef|g2 dc Bd2G/F/|E2e2 d2 GF|E2 A2 A2 GF|
E2e2 d2 ef|g2 dc Bd2G/F/|E3D/C/ D2 F2|G6 GF|
E2e2 d2 ef|g2 dc Bd2G/F/|E2e2 d2 GF|E2 A2 A2 GF|
E2e2 d2 GF|E2 c2 B2 GF|E3D/C/D2 F2|G4G2||

